src/main/resources/icons/HibernateCoreIcons/resources/icons/hibConsoleToolWindow_dark.svg

<svg xmlns="http://www.w3.org/2000/svg" width="13" height="13" viewBox="0 0 13 13">
  <g fill="none" fill-rule="evenodd">
    <path fill="#AFB1B3" fill-rule="nonzero" d="M7.53101503,8.37177154 L7.49261803,8.48535581 L9.51698881,11.9189213 L9.63156185,12 L11.7468165,8.342397 L9.63160304,4.67008614 L7.53105623,8.37177154 L7.53101503,8.37177154 Z M3.27117233,1.01252434 L1.20000005,4.67012734 L3.35196259,8.37177154 L5.40109368,4.67008614 L5.39557308,4.52053558 L3.3655993,1.08692884 L3.27117233,1.01252434 Z"/>
    <path fill="#AFB1B3" fill-rule="nonzero" d="M3.27117233,1.01252434 L5.40113488,4.67012734 L9.63156185,4.67012734 L7.48693263,1.01252434 L3.27117233,1.01252434 Z M3.35196259,8.37177154 L5.43784274,12 L9.63156185,12 L7.53101503,8.37177154 L3.35196259,8.37177154 Z"/>
  </g>
</svg>

<svg xmlns="http://www.w3.org/2000/svg" width="13" height="13" viewBox="0 0 13 13"><rect id="frame" width="13" height="13" fill="none"/><g fill="#AFB1B3" fill-rule="nonzero"><path d="M7.531 8.372l-.038.113 2.024 3.434.115.081 2.115-3.658L9.632 4.67l-2.1 3.702H7.53zm-4.26-7.36L1.2 4.67l2.152 3.702 2.05-3.702-.006-.15-2.03-3.433-.095-.074z"/><path d="M3.271 1.013l2.13 3.657h4.23L7.488 1.013H3.27zm.081 7.359L5.438 12h4.194L7.53 8.372H3.352z"/></g></svg>
